icons/mobile/16/svg/email-shield-16.svg

<svg width="16" height="16" viewBox="0 0 16 16" fill="none" xmlns="http://www.w3.org/2000/svg">
<path fill-rule="evenodd" clip-rule="evenodd" d="M10.2529 7.73704C10.6738 7.45745 11.2132 7.43547 11.6514 7.68919L11.7373 7.74387L11.7383 7.74485C11.9424 7.88557 12.1723 8.02815 12.4268 8.1677C12.6967 8.3145 12.9559 8.4377 13.1973 8.53782C13.771 8.7774 14.0874 9.38439 13.9756 9.98509L13.7959 10.9558C13.7153 11.3907 13.5659 11.838 13.3047 12.2341H13.3008C12.8695 12.8859 12.2912 13.4438 11.6572 13.8191C11.2961 14.0329 10.8589 14.0521 10.4854 13.8933L10.3291 13.8142C9.69809 13.4387 9.12264 12.8845 8.69336 12.2351L8.69238 12.2341C8.49672 11.9365 8.36389 11.6093 8.27539 11.28L8.20117 10.9509L8.01953 9.96555C7.9117 9.37407 8.21579 8.75994 8.79297 8.51829L9.09863 8.38352C9.20179 8.33583 9.30745 8.28488 9.41309 8.2302L9.41406 8.22923C9.725 8.0695 10.0052 7.90278 10.252 7.73802L10.2529 7.73704ZM10.9961 8.51243C10.9319 8.51161 10.8661 8.53063 10.8066 8.57005L10.8057 8.56907C10.5291 8.75371 10.217 8.9402 9.87109 9.1179L9.87207 9.11887C9.6321 9.24307 9.39909 9.34822 9.17969 9.44016L9.17871 9.44114C9.05743 9.49226 8.97591 9.63228 9.00391 9.78587L9.18457 10.7702C9.24787 11.1136 9.35901 11.4268 9.52734 11.6833C9.87793 12.2137 10.3451 12.6603 10.8398 12.9548L10.917 12.987C10.9436 12.9943 10.9712 12.9957 10.998 12.9958L10.9961 8.51243Z" fill="black"/>
<path fill-rule="evenodd" clip-rule="evenodd" d="M6.2373 4.00071C7.26013 3.99672 8.28598 4.03469 9.2998 4.12766C10.2687 4.21666 10.9989 5.02088 10.999 5.99778V6.51438H10.9932C10.5513 6.51438 10.124 6.64661 9.74902 6.88352V6.37571L7.69531 8.072C7.34831 8.358 6.923 8.49973 6.5 8.49973C6.076 8.49973 5.65164 8.357 5.30664 8.072L3.25 6.37376V9.00462C3.25 9.33058 3.50197 9.59956 3.83691 9.62962C4.88291 9.72462 5.94398 9.75699 7.00098 9.73899C7.00198 9.87399 7.01309 10.0102 7.03809 10.1462L7.19336 10.9851C6.96236 10.9901 6.73 11.0007 6.5 11.0007C5.577 11.0007 4.64263 10.9587 3.72363 10.8757C2.74083 10.7865 2 9.98249 2 9.00462V5.99778C2.00011 5.01988 2.73217 4.21568 3.7041 4.12669C4.53806 4.05069 5.39035 4.00771 6.2373 4.00071ZM6.24902 5.25071C5.49221 5.25816 4.73113 5.29459 3.9834 5.35911L6.10156 7.10813C6.33356 7.29813 6.66641 7.29813 6.89941 7.10813L9.01465 5.36009C8.18021 5.28826 7.33568 5.25071 6.49805 5.25071H6.24902Z" fill="black"/>
</svg>

<!-- This Source Code Form is subject to the terms of the Mozilla Public
   - License, v. 2.0. If a copy of the MPL was not distributed with this
   - file, You can obtain one at http://mozilla.org/MPL/2.0/. -->
<svg xmlns="http://www.w3.org/2000/svg" width="16" height="16" fill="none" viewBox="0 0 16 16">
    <path fill="#000" fill-rule="evenodd" d="M10.253 7.737c.42-.28.96-.302 1.398-.048l.086.055h.001a8 8 0 0 0 1.46.794c.573.24.89.846.778 1.447l-.18.97c-.08.436-.23.883-.491 1.28H13.3a5.2 5.2 0 0 1-1.644 1.584 1.3 1.3 0 0 1-1.172.074l-.156-.079a5.2 5.2 0 0 1-1.636-1.579 3.3 3.3 0 0 1-.418-.955l-.074-.33-.181-.984a1.31 1.31 0 0 1 .773-1.448l.306-.134q.155-.073.314-.154h.001c.311-.16.591-.327.838-.492zm.743.775a.34.34 0 0 0-.19.058 10 10 0 0 1-.935.548h.001a9 9 0 0 1-.692.322l-.001.001a.31.31 0 0 0-.175.345l.18.984c.064.344.175.657.343.913.35.53.818.977 1.313 1.272l.077.032a.3.3 0 0 0 .081.009z" clip-rule="evenodd" />
    <path fill="#000" fill-rule="evenodd" d="M6.237 4a32 32 0 0 1 3.063.128 1.865 1.865 0 0 1 1.699 1.87v.516h-.006c-.442 0-.869.133-1.244.37v-.508L7.695 8.072a1.88 1.88 0 0 1-2.388 0L3.25 6.374v2.63c0 .327.252.596.587.626 1.046.095 2.107.127 3.164.109q0 .203.037.407l.155.84c-.23.004-.463.015-.693.015a31 31 0 0 1-2.776-.125A1.877 1.877 0 0 1 2 9.005V5.998c0-.978.732-1.782 1.704-1.871A31 31 0 0 1 6.237 4m.012 1.25c-.757.008-1.518.045-2.266.11l2.119 1.748a.63.63 0 0 0 .797 0L9.015 5.36a29 29 0 0 0-2.517-.11z" clip-rule="evenodd" />
</svg>
